archdroid-icon-theme/Archdroid-BrownDark/places/scalable/folder-saved-search.svg

<svg fill="#3E2723" height="48" viewBox="0 0 48 48" width="48" xmlns="http://www.w3.org/2000/svg"><path d="m8 8c-2.21 0-3.980469 1.79-3.980469 4l-.019531 24c0 2.21 1.79 4 4 4h32c2.21 0 4-1.79 4-4v-20c0-2.21-1.79-4-4-4h-16l-4-4zm18.433594 9c4.105203 0 7.43164 3.328391 7.43164 7.433594 0 1.846769-.674281 3.532194-1.794922 4.830078l.314454.314453h.908203l5.707031 5.71875-1.703125 1.703125-5.71875-5.707031v-.902344l-.314453-.314453c-1.297885 1.114922-2.983309 1.789062-4.830078 1.789062-4.105203 0-7.433594-3.326437-7.433594-7.43164s3.328391-7.433594 7.433594-7.433594zm0 2.287109c-2.841624 0-5.146485 2.304861-5.146485 5.146485s2.304861 5.144531 5.146485 5.144531 5.144531-2.302907 5.144531-5.144531-2.302907-5.146485-5.144531-5.146485z" fill="#3E2723"/><path d="m79.186441 15.966102h-6v11c0 2.76-2.24 5-5 5s-5-2.24-5-5 2.24-5 5-5c1.13 0 2.16.39 3 1.02v-11.02h8z" fill="#fff"/></svg>

<svg fill="#3E2723" height="48" version="1.1" viewBox="0 0 48 48" width="48" xmlns="http://www.w3.org/2000/svg"><path d="M8 8C5.79 8 4.019531 9.79 4.019531 12L4 36C4 38.21 5.79 40 8 40L40 40C42.21 40 44 38.21 44 36L44 16C44 13.79 42.21 12 40 12L24 12 20 8 8 8zM26.433594 17C30.538797 17 33.865234 20.328391 33.865234 24.433594 33.865234 26.280363 33.190953 27.965788 32.070312 29.263672L32.384766 29.578125 33.292969 29.578125 39 35.296875 37.296875 37 31.578125 31.292969 31.578125 30.390625 31.263672 30.076172C29.965787 31.191094 28.280363 31.865234 26.433594 31.865234 22.328391 31.865234 19 28.538797 19 24.433594 19 20.328391 22.328391 17 26.433594 17zM26.433594 19.287109C23.59197 19.287109 21.287109 21.59197 21.287109 24.433594 21.287109 27.275218 23.59197 29.578125 26.433594 29.578125 29.275218 29.578125 31.578125 27.275218 31.578125 24.433594 31.578125 21.59197 29.275218 19.287109 26.433594 19.287109z"/><path d="m79.186441 15.966102l-6 0 0 11c0 2.76-2.24 5-5 5-2.76 0-5-2.24-5-5 0-2.76 2.24-5 5-5 1.13 0 2.16.39 3 1.02l0-11.02 8 0 0 4z" fill="#fff"/></svg>
